resources/icons/hicolor/scalable/actions/cm-wired-disconnected-symbolic.svg

<?xml version="1.0" encoding="UTF-8"?>
<svg height="16px" viewBox="0 0 16 16" width="16px" xmlns="http://www.w3.org/2000/svg">
    <g fill="#2e3436">
        <path d="m 15 10 c 0.265625 0 0.519531 0.105469 0.707031 0.292969 c 0.390625 0.390625 0.390625 1.023437 0 1.414062 l -1.292969 1.292969 l 1.292969 1.292969 c 0.390625 0.390625 0.390625 1.023437 0 1.414062 s -1.023437 0.390625 -1.414062 0 l -1.292969 -1.292969 l -1.292969 1.292969 c -0.390625 0.390625 -1.023437 0.390625 -1.414062 0 s -0.390625 -1.023437 0 -1.414062 l 1.292969 -1.292969 l -1.292969 -1.292969 c -0.390625 -0.390625 -0.390625 -1.023437 0 -1.414062 c 0.1875 -0.1875 0.441406 -0.292969 0.707031 -0.292969 s 0.519531 0.105469 0.707031 0.292969 l 1.292969 1.292969 l 1.292969 -1.292969 c 0.1875 -0.1875 0.441406 -0.292969 0.707031 -0.292969 z m 0 0"/>
        <path d="m 6 0 c -0.554688 0 -1 0.445312 -1 1 v 3 c 0 0.554688 0.445312 1 1 1 h 1 v 2 h -7 v 2 h 2 v 2 h -1 c -0.554688 0 -1 0.445312 -1 1 v 3 c 0 0.554688 0.445312 1 1 1 h 4 c 0.554688 0 1 -0.445312 1 -1 v -3 c 0 -0.554688 -0.445312 -1 -1 -1 h -1 v -2 h 12 v -2 h -7 v -2 h 1 c 0.554688 0 1 -0.445312 1 -1 v -3 c 0 -0.554688 -0.445312 -1 -1 -1 z m 0 0" fill-opacity="0.34902"/>
    </g>
</svg>

<svg width='16' height='16'
     xmlns:gpa='https://www.gtk.org/grappa'
     gpa:version='1'>
  <path d='M15.00 10.00C15.27 10.00 15.52 10.11 15.71 10.29C16.10 10.68 16.10 11.32 15.71 11.71L14.41 13.00L15.71 14.29C16.10 14.68 16.10 15.32 15.71 15.71C15.32 16.10 14.68 16.10 14.29 15.71L13.00 14.41L11.71 15.71C11.32 16.10 10.68 16.10 10.29 15.71C9.90 15.32 9.90 14.68 10.29 14.29L11.59 13.00L10.29 11.71C9.90 11.32 9.90 10.68 10.29 10.29C10.48 10.11 10.73 10.00 11.00 10.00C11.27 10.00 11.52 10.11 11.71 10.29L13.00 11.59L14.29 10.29C14.48 10.11 14.73 10.00 15.00 10.00ZM15.00 10.00'
stroke='none'
fill='rgb(0,0,0)'
gpa:fill='foreground'/>
  <path d='M6.00 0.00C5.45 0.00 5.00 0.45 5.00 1.00L5.00 4.00C5.00 4.55 5.45 5.00 6.00 5.00L7.00 5.00L7.00 7.00L0.00 7.00L0.00 9.00L2.00 9.00L2.00 11.00L1.00 11.00C0.45 11.00 0.00 11.45 0.00 12.00L0.00 15.00C0.00 15.55 0.45 16.00 1.00 16.00L5.00 16.00C5.55 16.00 6.00 15.55 6.00 15.00L6.00 12.00C6.00 11.45 5.55 11.00 5.00 11.00L4.00 11.00L4.00 9.00L16.00 9.00L16.00 7.00L9.00 7.00L9.00 5.00L10.00 5.00C10.55 5.00 11.00 4.55 11.00 4.00L11.00 1.00C11.00 0.45 10.55 0.00 10.00 0.00ZM6.00 0.00'
stroke='none'
fill='rgb(0,0,0)'
gpa:fill='foreground'/>
</svg>
